X:5220
T:Fill The Tankard. BF11.07
M:9/8
L:1/8
Q:120
C:Browne A hand
S:MS11,c1800.,Browne Coll.,Lakes
R:Slip Jig
O:England
A:Lakes
N:There's a lot of blotting from another page, and the writer seems to
N:have had a few problems with his pe
Z:vmp.Cherri Graebe.
K:F major
"NB"|:fgf e2c d2e|f2a gec d2e| fgf A2f d2e|dcB A2GF3:|!
|:a2f d2f agf| g2e c2e gfe|f2ed2f fga| g2e cde f3:|]
W:Whole thing barred as 6/8 in MS.Bar 3 (d2e) is my insertion. CGP |]
